assets/si/si-clubhouse.svg

<svg xmlns="http://www.w3.org/2000/svg" width="100%" height="100%" viewBox="-3.36 -3.36 30.72 30.72"><path d="M1.74219 17.9588C0.78125 17.9588 0 18.7528 0 19.7294C0 20.6981 0.78125 21.5 1.74219 21.5C2.70312 21.5 3.48438 20.6981 3.48438 19.7294C3.48438 18.7528 2.71094 17.9588 1.74219 17.9588ZM23.1797 2.5L12.2188 6.05704V2.54764L0.390624 6.38257V16.5694L10.5938 13.2585V16.752L24 12.4089L20.3672 8.80422L23.1797 2.5ZM10.5938 11.5117L2.02344 14.2906V7.58943L10.5938 4.81049V11.5117ZM20.9688 11.6546L12.2188 14.4971V7.8038L20.2734 5.18366L18.4219 9.15357L20.9688 11.6546Z"/></svg>

<svg xmlns="http://www.w3.org/2000/svg" width="100%" height="100%" viewBox="-3.36 -3.36 30.72 30.72"><path d="M1.742 17.959c-.96 0-1.742.794-1.742 1.77C0 20.7.781 21.5 1.742 21.5s1.742-.802 1.742-1.77c0-.977-.773-1.771-1.742-1.771zM23.18 2.5L12.219 6.057v-3.51L.39 6.384v10.186l10.203-3.31v3.493L24 12.409l-3.633-3.605L23.18 2.5zm-12.586 9.012l-8.57 2.779V7.589l8.57-2.779v6.702zm10.375.143l-8.75 2.842V7.804l8.054-2.62-1.851 3.97 2.547 2.5z"/></svg>
